assets/images/review-star.svg

<svg width="16" height="16" viewBox="0 0 16 16" fill="none" xmlns="http://www.w3.org/2000/svg">
<path d="M14.9498 6.0875C14.8872 5.89061 14.7666 5.71723 14.6038 5.59009C14.4409 5.46294 14.2435 5.38797 14.0373 5.375L10.3248 5.11875L8.94978 1.65C8.8747 1.459 8.74401 1.29494 8.57464 1.17905C8.40526 1.06317 8.205 1.00079 7.99978 1C7.79455 1.00079 7.59429 1.06317 7.42492 1.17905C7.25555 1.29494 7.12486 1.459 7.04978 1.65L5.64978 5.1375L1.96228 5.375C1.75634 5.38881 1.55929 5.4641 1.39661 5.59112C1.23393 5.71814 1.11311 5.89106 1.04978 6.0875C0.984741 6.28695 0.980941 6.50131 1.03887 6.70294C1.0968 6.90458 1.21379 7.08423 1.37478 7.21875L4.21228 9.61875L3.36853 12.9375C3.31015 13.162 3.32066 13.3989 3.39868 13.6174C3.4767 13.8358 3.61863 14.0258 3.80603 14.1625C3.98792 14.293 4.20463 14.3664 4.42843 14.373C4.65222 14.3797 4.87292 14.3195 5.06228 14.2L7.99353 12.3438H8.00603L11.1623 14.3375C11.3242 14.4427 11.5129 14.4991 11.706 14.5C11.8637 14.4988 12.019 14.4614 12.1599 14.3908C12.3009 14.3201 12.4237 14.2181 12.5191 14.0926C12.6145 13.967 12.6798 13.8213 12.71 13.6666C12.7403 13.5118 12.7346 13.3522 12.6935 13.2L11.7998 9.56875L14.6248 7.21875C14.7858 7.08423 14.9028 6.90458 14.9607 6.70294C15.0186 6.50131 15.0148 6.28695 14.9498 6.0875Z" fill="#FFA000"/>
</svg>

<svg width="16" height="16" fill="none" xmlns="http://www.w3.org/2000/svg"><path d="M14.95 6.088a1.025 1.025 0 00-.913-.713l-3.712-.256L8.95 1.65A1.025 1.025 0 008 1a1.025 1.025 0 00-.95.65l-1.4 3.488-3.688.237a1.031 1.031 0 00-.912.713 1.05 1.05 0 00.325 1.13l2.837 2.4-.843 3.32a1.156 1.156 0 00.437 1.224 1.125 1.125 0 001.256.038l2.932-1.856h.012l3.156 1.994c.162.105.35.161.544.162a1.03 1.03 0 00.988-1.3L11.8 9.569l2.825-2.35a1.05 1.05 0 00.325-1.131z" fill="#FFA000"/></svg>
